X: 16
T: St James's Bason
T: Longways for as many as will.
%R:
B: Daniel Wright "Wright's Compleat Collection of Celebrated Country Dances" 1740 p.8
S: http://library.efdss.org/cgi-bin/dancebooks.cgi
Z: 2014 John Chambers <jc:trillian.mit.edu>
M: 6/4
L: 1/4
K: C
% - - - - - - - - - - - - - - - - - - - - - - - - -
[|\
C2C DEF | G2c B2G | A2A Bcd | e2a ^g2e |\
C2C DEF | G2c B2G | cBA GEG | A/B/cE D2C |]
cg2 geg | B2c dBG | cg2 geg | c2a ^g2e |\
cg2 geg | B2c dBG | A/B/cA GEG | A/B/cE D2C |]
% - - - - - - - - - - - - - - - - - - - - - - - - -
%%begintext align
%% The 1st Cu. Gallop down the middle & up to the
%% Top & cast of .| the 2d Cu. do the same :| The 1st man
%% turn the 3d Wo & 1st Wo. the 2d Man & turn Partners
%% .| The 1st Man turn the 2d Wo. & 1st Wo. 3d Man
%% & turn Partners :#: The 1st Man & 2d Wo. Foot it
%% and turn .| 1st Wo. & 2d Man the same :| the 1st Cu.
%% Cross over & Figure in .| then Right & Left.
%%endtext
%%center A Double dance
% - - - - - - - - - - - - - - - - - - - - - - - - -
%%sep 2 4 300
